X:1
T: No. 7 Polka
C:
N:From the Uniontown first violin manuscript, Uniontown, Washington, 1892,
N:created by William Hamilton Ehlen and Henry Ehlen, members of the Aurora Colony
N:in Oregon's Willamette Valley. There is a second violin manuscript for this polka,
N:and it also appears in the Aurora 1880 manuscript.
Z:V. T. Williams
M:2/4
K:D
F2A2 PB2A2|f2A2 PB2A2|d2c2 GFG2|B2A2 F^EF2|F2A2 PB2A2|f2A2  PB2A2|
cdef efef|edcB A2z2:||:a3^e f3d|b2e2 gfg2|g3^d e3A|
a2d2 f^ef2|a3^e f3d|b2e2 gfg2|cdef g^gac|edFAd4:|
K:G
|:G2B2 d^cd2|[gB]2[gB]2 [gB]2[gB]2|B2d2 gfg2|[bd]2[bd]2 [bd]2[bd]2|c'ba2 agf2|[fc]2[fc]2 [fc]2[fc]2|
bag2 gdB2|[gB]2[gB]2 [gB]2[gB]2|G2B2 d^cd2|[gB]2[gB]2 [gB]2[gB]2|c2e2 aga2|[_bd]2[bd]2 [bd]2[bd]2|
[=bd]2[bd]2 [bd][^a^c][bd]2|[ec']2[fc]2 [fc][fA][fc]2|[ca]2[gB]2 [bd]3[ac]|[gB]2[gB]2 [gB]2z2:||:gfge cBce|Pd2B2 G2Bd|
Pc2[Af]2 [Af]2Ac|PB2[Bg]2 [Bg]2Bd|gfge cBce|Pd2B2 G2Bd|c2a2 gfef|g2g2 g2z2:|

